X: 1
T: Jumping Cactus
%O: from Viola Ruth
B: Lee Owens "Advanced Square Dance Figures of the West and Southwest" p.96
R: reel
Z: 2010 John Chambers <jc:trillian.mit.edu>
M: 2/4
L: 1/16
K: G
|: "G"[bd][bd][bd][bd] [b2d2][a2c2] | [gB][gB][gB][gB] [g2B2][f2A2] |\
"C"[ec][ec][ec][ec] [e2c2][d2F2] | "D7"c2B2 A4 |
[ac][ac][ac][ac] [a2c2][g2B2] | [f6d6] (fe) | d2d2 e2f2 | "G"[g4-B4-] [g4B4] :|
|: "G"MG2MA2 MB2Mc2 | "(D)"[d6F6] (Bc) | "G"d2(Bc) d2B2 | "D"[A6F6] AA |
MD2MF2 MA2MB2 | "D7"[e6c6] d2 | f3e d2(ef) | "G"g2g2 g2z2 :|

%%sep 1 1 500

